X: 41
M: C|
L: 1/8
K: D
d2f2 Te2d2 | a4 f4 |\
b2a2 g2f2 | Tg2 f4 :: a2 |\
b2g2 e2fg | a2f2 d2ef |
g2f2 e2d2 | edef e2(fg) |\
a2fg a2gf | g2ef g2fe |\
fede Te3d | d6 :|



